icons/modern/knocked-out-face.svg

<svg width="32" height="32" viewBox="0 0 32 32" fill="none" xmlns="http://www.w3.org/2000/svg">
<path d="M15.9989 29.9978C25.3333 29.9978 29.9978 23.7303 29.9978 15.9989C29.9978 8.26751 25.3333 2 15.9989 2C6.66443 2 2 8.26751 2 15.9989C2 23.7303 6.66443 29.9978 15.9989 29.9978Z" fill="url(#paint0_radial_31_166)"/>
<path d="M15.9989 29.9978C25.3333 29.9978 29.9978 23.7303 29.9978 15.9989C29.9978 8.26751 25.3333 2 15.9989 2C6.66443 2 2 8.26751 2 15.9989C2 23.7303 6.66443 29.9978 15.9989 29.9978Z" fill="url(#paint1_radial_31_166)"/>
<path d="M15.9989 29.9978C25.3333 29.9978 29.9978 23.7303 29.9978 15.9989C29.9978 8.26751 25.3333 2 15.9989 2C6.66443 2 2 8.26751 2 15.9989C2 23.7303 6.66443 29.9978 15.9989 29.9978Z" fill="url(#paint2_radial_31_166)"/>
<path d="M15.9989 29.9978C25.3333 29.9978 29.9978 23.7303 29.9978 15.9989C29.9978 8.26751 25.3333 2 15.9989 2C6.66443 2 2 8.26751 2 15.9989C2 23.7303 6.66443 29.9978 15.9989 29.9978Z" fill="url(#paint3_radial_31_166)" fill-opacity="0.6"/>
<path d="M15.9989 29.9978C25.3333 29.9978 29.9978 23.7303 29.9978 15.9989C29.9978 8.26751 25.3333 2 15.9989 2C6.66443 2 2 8.26751 2 15.9989C2 23.7303 6.66443 29.9978 15.9989 29.9978Z" fill="url(#paint4_radial_31_166)"/>
<path d="M15.9989 29.9978C25.3333 29.9978 29.9978 23.7303 29.9978 15.9989C29.9978 8.26751 25.3333 2 15.9989 2C6.66443 2 2 8.26751 2 15.9989C2 23.7303 6.66443 29.9978 15.9989 29.9978Z" fill="url(#paint5_radial_31_166)"/>
<path d="M15.9989 29.9978C25.3333 29.9978 29.9978 23.7303 29.9978 15.9989C29.9978 8.26751 25.3333 2 15.9989 2C6.66443 2 2 8.26751 2 15.9989C2 23.7303 6.66443 29.9978 15.9989 29.9978Z" fill="url(#paint6_radial_31_166)"/>
<path d="M15.9989 29.9978C25.3333 29.9978 29.9978 23.7303 29.9978 15.9989C29.9978 8.26751 25.3333 2 15.9989 2C6.66443 2 2 8.26751 2 15.9989C2 23.7303 6.66443 29.9978 15.9989 29.9978Z" fill="url(#paint7_radial_31_166)"/>
<g opacity="0.6" filter="url(#filter0_f_31_166)">
<path fill-rule="evenodd" clip-rule="evenodd" d="M7.29289 9.79289C7.68342 9.40237 8.31658 9.40237 8.70711 9.79289L10.5 11.5858L12.2929 9.79289C12.6834 9.40237 13.3166 9.40237 13.7071 9.79289C14.0976 10.1834 14.0976 10.8166 13.7071 11.2071L11.9142 13L13.7071 14.7929C14.0976 15.1834 14.0976 15.8166 13.7071 16.2071C13.3166 16.5976 12.6834 16.5976 12.2929 16.2071L10.5 14.4142L8.70711 16.2071C8.31658 16.5976 7.68342 16.5976 7.29289 16.2071C6.90237 15.8166 6.90237 15.1834 7.29289 14.7929L9.08579 13L7.29289 11.2071C6.90237 10.8166 6.90237 10.1834 7.29289 9.79289ZM18.2929 9.79289C18.6834 9.40237 19.3166 9.40237 19.7071 9.79289L21.5 11.5858L23.2929 9.79289C23.6834 9.40237 24.3166 9.40237 24.7071 9.79289C25.0976 10.1834 25.0976 10.8166 24.7071 11.2071L22.9142 13L24.7071 14.7929C25.0976 15.1834 25.0976 15.8166 24.7071 16.2071C24.3166 16.5976 23.6834 16.5976 23.2929 16.2071L21.5 14.4142L19.7071 16.2071C19.3166 16.5976 18.6834 16.5976 18.2929 16.2071C17.9024 15.8166 17.9024 15.1834 18.2929 14.7929L20.0858 13L18.2929 11.2071C17.9024 10.8166 17.9024 10.1834 18.2929 9.79289Z" fill="#B56318"/>
</g>
<path d="M13 10L8 15" stroke="url(#paint8_linear_31_166)" stroke-width="2" stroke-linecap="round"/>
<path d="M8 10L13 15" stroke="url(#paint9_linear_31_166)" stroke-width="2" stroke-linecap="round"/>
<path d="M24 10L19 15" stroke="url(#paint10_linear_31_166)" stroke-width="2" stroke-linecap="round"/>
<path d="M19 10L24 15" stroke="url(#paint11_linear_31_166)" stroke-width="2" stroke-linecap="round"/>
<rect x="12" y="19" width="8" height="8" rx="4" fill="url(#paint12_radial_31_166)"/>
<defs>
<filter id="filter0_f_31_166" x="6" y="8.5" width="20" height="9" filterUnits="userSpaceOnUse" color-interpolation-filters="sRGB">
<feFlood flood-opacity="0" result="BackgroundImageFix"/>
<feBlend mode="normal" in="SourceGraphic" in2="BackgroundImageFix" result="shape"/>
<feGaussianBlur stdDeviation="0.5" result="effect1_foregroundBlur_31_166"/>
</filter>
<radialGradient id="paint0_radial_31_166" cx="0" cy="0" r="1" gradientUnits="userSpaceOnUse" gradientTransform="translate(25.5 9) rotate(132.839) scale(37.5033)">
<stop stop-color="#FFF478"/>
<stop offset="0.474827" stop-color="#FFB02E"/>
<stop offset="1" stop-color="#F70A8D"/>
</radialGradient>
<radialGradient id="paint1_radial_31_166" cx="0" cy="0" r="1" gradientUnits="userSpaceOnUse" gradientTransform="translate(25.5 9) rotate(131.878) scale(38.9487)">
<stop stop-color="#FFF478"/>
<stop offset="0.474827" stop-color="#FFB02E"/>
<stop offset="1" stop-color="#F70A8D"/>
</radialGradient>
<radialGradient id="paint2_radial_31_166" cx="0" cy="0" r="1" gradientUnits="userSpaceOnUse" gradientTransform="translate(16 12.5) rotate(101.31) scale(17.8466 22.8581)">
<stop offset="0.787821" stop-color="#F59639" stop-opacity="0"/>
<stop offset="0.972509" stop-color="#FF7DCE"/>
</radialGradient>
<radialGradient id="paint3_radial_31_166" cx="0" cy="0" r="1" gradientUnits="userSpaceOnUse" gradientTransform="translate(18 14) rotate(135) scale(41.0122)">
<stop offset="0.314853" stop-opacity="0"/>
<stop offset="1"/>
</radialGradient>
<radialGradient id="paint4_radial_31_166" cx="0" cy="0" r="1" gradientUnits="userSpaceOnUse" gradientTransform="translate(16 17) rotate(77.692) scale(28.1469)">
<stop offset="0.507903" stop-color="#7D6133" stop-opacity="0"/>
<stop offset="1" stop-color="#715B32"/>
</radialGradient>
<radialGradient id="paint5_radial_31_166" cx="0" cy="0" r="1" gradientUnits="userSpaceOnUse" gradientTransform="translate(16.5 16.5) rotate(55.7131) scale(13.3135 9.65032)">
<stop stop-color="#FFB849"/>
<stop offset="1" stop-color="#FFB847" stop-opacity="0"/>
</radialGradient>
<radialGradient id="paint6_radial_31_166" cx="0" cy="0" r="1" gradientUnits="userSpaceOnUse" gradientTransform="translate(20.5 18) rotate(9.86581) scale(11.6726)">
<stop stop-color="#FFA64B"/>
<stop offset="0.900412" stop-color="#FFAE46" stop-opacity="0"/>
</radialGradient>
<radialGradient id="paint7_radial_31_166" cx="0" cy="0" r="1" gradientUnits="userSpaceOnUse" gradientTransform="translate(17.5 15) rotate(43.9708) scale(59.0529)">
<stop offset="0.185425" stop-opacity="0"/>
<stop offset="1" stop-opacity="0.4"/>
</radialGradient>
<linearGradient id="paint8_linear_31_166" x1="11.5" y1="13.5" x2="9.5" y2="11.5" gradientUnits="userSpaceOnUse">
<stop stop-color="#4F3C43"/>
<stop offset="0.326354" stop-color="#52394E"/>
<stop offset="1" stop-color="#422E2B"/>
</linearGradient>
<linearGradient id="paint9_linear_31_166" x1="13" y1="12.5" x2="11" y2="14.5" gradientUnits="userSpaceOnUse">
<stop stop-color="#45253E"/>
<stop offset="0.414382" stop-color="#55424C"/>
<stop offset="1" stop-color="#512756"/>
</linearGradient>
<linearGradient id="paint10_linear_31_166" x1="22.5" y1="13.5" x2="20.5" y2="11.5" gradientUnits="userSpaceOnUse">
<stop stop-color="#4F3C43"/>
<stop offset="0.326354" stop-color="#52394E"/>
<stop offset="1" stop-color="#422E2B"/>
</linearGradient>
<linearGradient id="paint11_linear_31_166" x1="24" y1="12.5" x2="22" y2="14.5" gradientUnits="userSpaceOnUse">
<stop stop-color="#45253E"/>
<stop offset="0.414382" stop-color="#55424C"/>
<stop offset="1" stop-color="#512756"/>
</linearGradient>
<radialGradient id="paint12_radial_31_166" cx="0" cy="0" r="1" gradientUnits="userSpaceOnUse" gradientTransform="translate(16 28.7778) rotate(-90) scale(9.77778)">
<stop stop-color="#F70A8D"/>
<stop offset="1" stop-color="#89029C"/>
</radialGradient>
</defs>
</svg>

<svg width="32" height="32" fill="none" xmlns="http://www.w3.org/2000/svg"><path d="M15.999 29.998c9.334 0 13.999-6.268 13.999-14 0-7.73-4.665-13.998-14-13.998C6.665 2 2 8.268 2 15.999c0 7.731 4.664 13.999 13.999 13.999Z" fill="url(#a)"/><path d="M15.999 29.998c9.334 0 13.999-6.268 13.999-14 0-7.73-4.665-13.998-14-13.998C6.665 2 2 8.268 2 15.999c0 7.731 4.664 13.999 13.999 13.999Z" fill="url(#b)"/><path d="M15.999 29.998c9.334 0 13.999-6.268 13.999-14 0-7.73-4.665-13.998-14-13.998C6.665 2 2 8.268 2 15.999c0 7.731 4.664 13.999 13.999 13.999Z" fill="url(#c)"/><path d="M15.999 29.998c9.334 0 13.999-6.268 13.999-14 0-7.73-4.665-13.998-14-13.998C6.665 2 2 8.268 2 15.999c0 7.731 4.664 13.999 13.999 13.999Z" fill="url(#d)" fill-opacity=".6"/><path d="M15.999 29.998c9.334 0 13.999-6.268 13.999-14 0-7.73-4.665-13.998-14-13.998C6.665 2 2 8.268 2 15.999c0 7.731 4.664 13.999 13.999 13.999Z" fill="url(#e)"/><path d="M15.999 29.998c9.334 0 13.999-6.268 13.999-14 0-7.73-4.665-13.998-14-13.998C6.665 2 2 8.268 2 15.999c0 7.731 4.664 13.999 13.999 13.999Z" fill="url(#f)"/><path d="M15.999 29.998c9.334 0 13.999-6.268 13.999-14 0-7.73-4.665-13.998-14-13.998C6.665 2 2 8.268 2 15.999c0 7.731 4.664 13.999 13.999 13.999Z" fill="url(#g)"/><path d="M15.999 29.998c9.334 0 13.999-6.268 13.999-14 0-7.73-4.665-13.998-14-13.998C6.665 2 2 8.268 2 15.999c0 7.731 4.664 13.999 13.999 13.999Z" fill="url(#h)"/><g opacity=".6" filter="url(#i)"><path fill-rule="evenodd" clip-rule="evenodd" d="M7.293 9.793a1 1 0 0 1 1.414 0l1.793 1.793 1.793-1.793a1 1 0 1 1 1.414 1.414L11.914 13l1.793 1.793a1 1 0 0 1-1.414 1.414L10.5 14.414l-1.793 1.793a1 1 0 0 1-1.414-1.414L9.086 13l-1.793-1.793a1 1 0 0 1 0-1.414Zm11 0a1 1 0 0 1 1.414 0l1.793 1.793 1.793-1.793a1 1 0 1 1 1.414 1.414L22.914 13l1.793 1.793a1 1 0 0 1-1.414 1.414L21.5 14.414l-1.793 1.793a1 1 0 0 1-1.414-1.414L20.086 13l-1.793-1.793a1 1 0 0 1 0-1.414Z" fill="#B56318"/></g><path d="m13 10-5 5" stroke="url(#j)" stroke-width="2" stroke-linecap="round"/><path d="m8 10 5 5" stroke="url(#k)" stroke-width="2" stroke-linecap="round"/><path d="m24 10-5 5" stroke="url(#l)" stroke-width="2" stroke-linecap="round"/><path d="m19 10 5 5" stroke="url(#m)" stroke-width="2" stroke-linecap="round"/><rect x="12" y="19" width="8" height="8" rx="4" fill="url(#n)"/><defs><radialGradient id="a" cx="0" cy="0" r="1" gradientUnits="userSpaceOnUse" gradientTransform="rotate(132.839 10.786 10.065) scale(37.5033)"><stop stop-color="#FFF478"/><stop offset=".475" stop-color="#FFB02E"/><stop offset="1" stop-color="#F70A8D"/></radialGradient><radialGradient id="b" cx="0" cy="0" r="1" gradientUnits="userSpaceOnUse" gradientTransform="rotate(131.878 10.74 10.193) scale(38.9487)"><stop stop-color="#FFF478"/><stop offset=".475" stop-color="#FFB02E"/><stop offset="1" stop-color="#F70A8D"/></radialGradient><radialGradient id="c" cx="0" cy="0" r="1" gradientUnits="userSpaceOnUse" gradientTransform="rotate(101.31 2.876 12.808) scale(17.8466 22.8581)"><stop offset=".788" stop-color="#F59639" stop-opacity="0"/><stop offset=".973" stop-color="#FF7DCE"/></radialGradient><radialGradient id="d" cx="0" cy="0" r="1" gradientUnits="userSpaceOnUse" gradientTransform="matrix(-29 29 -29 -29 18 14)"><stop offset=".315" stop-opacity="0"/><stop offset="1"/></radialGradient><radialGradient id="e" cx="0" cy="0" r="1" gradientUnits="userSpaceOnUse" gradientTransform="rotate(77.692 -2.555 18.434) scale(28.1469)"><stop offset=".508" stop-color="#7D6133" stop-opacity="0"/><stop offset="1" stop-color="#715B32"/></radialGradient><radialGradient id="f" cx="0" cy="0" r="1" gradientUnits="userSpaceOnUse" gradientTransform="rotate(55.713 -7.36 23.86) scale(13.3135 9.65032)"><stop stop-color="#FFB849"/><stop offset="1" stop-color="#FFB847" stop-opacity="0"/></radialGradient><radialGradient id="g" cx="0" cy="0" r="1" gradientUnits="userSpaceOnUse" gradientTransform="matrix(11.49998 2 -2 11.49998 20.5 18)"><stop stop-color="#FFA64B"/><stop offset=".9" stop-color="#FFAE46" stop-opacity="0"/></radialGradient><radialGradient id="h" cx="0" cy="0" r="1" gradientUnits="userSpaceOnUse" gradientTransform="rotate(43.971 -9.827 29.173) scale(59.0529)"><stop offset=".185" stop-opacity="0"/><stop offset="1" stop-opacity=".4"/></radialGradient><radialGradient id="n" cx="0" cy="0" r="1" gradientUnits="userSpaceOnUse" gradientTransform="matrix(0 -9.77778 9.77778 0 16 28.778)"><stop stop-color="#F70A8D"/><stop offset="1" stop-color="#89029C"/></radialGradient><linearGradient id="j" x1="11.5" y1="13.5" x2="9.5" y2="11.5" gradientUnits="userSpaceOnUse"><stop stop-color="#4F3C43"/><stop offset=".326" stop-color="#52394E"/><stop offset="1" stop-color="#422E2B"/></linearGradient><linearGradient id="k" x1="13" y1="12.5" x2="11" y2="14.5" gradientUnits="userSpaceOnUse"><stop stop-color="#45253E"/><stop offset=".414" stop-color="#55424C"/><stop offset="1" stop-color="#512756"/></linearGradient><linearGradient id="l" x1="22.5" y1="13.5" x2="20.5" y2="11.5" gradientUnits="userSpaceOnUse"><stop stop-color="#4F3C43"/><stop offset=".326" stop-color="#52394E"/><stop offset="1" stop-color="#422E2B"/></linearGradient><linearGradient id="m" x1="24" y1="12.5" x2="22" y2="14.5" gradientUnits="userSpaceOnUse"><stop stop-color="#45253E"/><stop offset=".414" stop-color="#55424C"/><stop offset="1" stop-color="#512756"/></linearGradient><filter id="i" x="6" y="8.5" width="20" height="9" filterUnits="userSpaceOnUse" color-interpolation-filters="sRGB"><feFlood flood-opacity="0" result="BackgroundImageFix"/><feBlend in="SourceGraphic" in2="BackgroundImageFix" result="shape"/><feGaussianBlur stdDeviation=".5" result="effect1_foregroundBlur_31_166"/></filter></defs></svg>
